img/logo-8.svg

<?xml version="1.0" encoding="UTF-8"?>
<svg width="256px" height="215px" viewBox="0 0 256 215" version="1.1" xmlns="http://www.w3.org/2000/svg" xmlns:xlink="http://www.w3.org/1999/xlink" preserveAspectRatio="xMidYMid">
	<g>
		<path d="M114.25873,2.70101695 L18.8604023,42.1756384 C13.5552723,44.3711638 13.6102328,51.9065311 18.9486282,54.0225085 L114.746142,92.0117514 C123.163769,95.3498757 132.537419,95.3498757 140.9536,92.0117514 L236.75256,54.0225085 C242.08951,51.9065311 242.145916,44.3711638 236.83934,42.1756384 L141.442459,2.70101695 C132.738459,-0.900338983 122.961284,-0.900338983 114.25873,2.70101695" fill="#FFBF00"/>
		<path d="M136.349071,112.756863 L136.349071,207.659101 C136.349071,212.173089 140.900664,215.263892 145.096461,213.600615 L251.844122,172.166219 C254.281184,171.200072 255.879376,168.845451 255.879376,166.224705 L255.879376,71.3224678 C255.879376,66.8084791 251.327783,63.7176768 247.131986,65.3809537 L140.384325,106.815349 C137.94871,107.781496 136.349071,110.136118 136.349071,112.756863" fill="#26B5F8"/>
		<path d="M111.422771,117.65355 L79.742409,132.949912 L76.5257763,134.504714 L9.65047684,166.548104 C5.4112904,168.593211 0.000578531073,165.503855 0.000578531073,160.794612 L0.000578531073,71.7210757 C0.000578531073,70.0173017 0.874160452,68.5463864 2.04568588,67.4384994 C2.53454463,66.9481944 3.08848814,66.5446689 3.66412655,66.2250305 C5.26231864,65.2661153 7.54173107,65.0101153 9.47981017,65.7766689 L110.890522,105.957098 C116.045234,108.002206 116.450206,115.225166 111.422771,117.65355" fill="#ED3049"/>
		<path d="M111.422771,117.65355 L79.742409,132.949912 L2.04568588,67.4384994 C2.53454463,66.9481944 3.08848814,66.5446689 3.66412655,66.2250305 C5.26231864,65.2661153 7.54173107,65.0101153 9.47981017,65.7766689 L110.890522,105.957098 C116.045234,108.002206 116.450206,115.225166 111.422771,117.65355" fill-opacity="0.25" fill="#000000"/>
	</g>
</svg>

<svg xmlns="http://www.w3.org/2000/svg" width="256" height="215" preserveAspectRatio="xMidYMid" viewBox="0 0 256 215"><path fill="#FFBF00" d="M114.259 2.701L18.86 42.176c-5.305 2.195-5.25 9.73.089 11.847l95.797 37.989c8.418 3.338 17.791 3.338 26.208 0l95.799-37.99c5.337-2.115 5.393-9.65.086-11.846L141.442 2.7c-8.704-3.601-18.48-3.601-27.183 0"/><path fill="#26B5F8" d="M136.35 112.757v94.902c0 4.514 4.55 7.605 8.746 5.942l106.748-41.435c2.437-.966 4.035-3.32 4.035-5.941V71.322c0-4.514-4.551-7.604-8.747-5.941l-106.748 41.434c-2.435.966-4.035 3.321-4.035 5.942"/><path fill="#ED3049" d="M111.423 117.654l-31.68 15.296-3.217 1.555L9.65 166.548C5.411 168.593 0 165.504 0 160.795V71.72c0-1.704.874-3.175 2.046-4.283.489-.49 1.042-.893 1.618-1.213 1.598-.959 3.878-1.215 5.816-.448l101.41 40.18c5.155 2.045 5.56 9.268.533 11.697"/><path fill-opacity=".25" d="M111.423 117.654l-31.68 15.296L2.045 67.438c.489-.49 1.042-.893 1.618-1.213 1.598-.959 3.878-1.215 5.816-.448l101.41 40.18c5.155 2.045 5.56 9.268.533 11.697"/></svg>
